!!!COM: Scriabin, Alexander
!!!OTL: Flammes sombres
!!!OPR: 2 Danses
!!!OPS: 73
!!!ONM: 2
!!!ODT: 1914
!!!AGN: Danse
**kern	**kern
*staff2	*staff1
*clefF4	*clefG2
*k[]	*k[]
*M2/4	*M2/4
=1	=1
*	*^
16r	6g-X	12dL
16ALL	.	.
.	.	12d-X
16E-X	.	.
.	12dd-X	12AJ
16FFJJ	.	.
16r	4cc	12g#XL
16d#XLL	.	.
.	.	12gn
16A	.	.
.	.	12d#XJ
16BBJJ	.	.
=2	=2	=2
16r	6g-X	12dnL
16ALL	.	.
.	.	12d-X
16E-X	.	.
.	12dd-X	12AJ
16FFJJ	.	.
16r	4cc	12g#XL
16d#XLL	.	.
.	.	12gn
16A	.	.
.	.	12d#XJ
16BBJJ	.	.
=3	=3	=3
16r	6g-X	12dnL
16ALL	.	.
.	.	12d-X
16E-X	.	.
.	12dd-X	12AJ
16FFJJ	.	.
16r	4een	12bL
16f#XLL	.	.
.	.	12b-X
16c	.	.
.	.	12f#XJ
16DnJJ	.	.
=4	=4	=4
16r	6b--	12fnL
16cLL	.	.
.	.	12f-X
16G-X	.	.
.	12ff-X	12cJ
16AA-XJJ	.	.
[4BBn [4Fn [4e-X [4an	[4ggn	[4dd
=5	=5	=5
4BB] 4F] 4e-] 4a]	4gg]	12ddL]
.	.	12dd-X
.	.	12aJ
4BB 4F 4e-X	4raa	12a-XL
.	.	12g
.	.	12e-XJ
=6	=6	=6
4FF 4E-X 4An	4g-X	12dnL
.	.	12d-X
.	.	12AJ
4BBB 4FF#X 4D#X 4A	4fn	12dnL
.	.	12c#X
.	.	12AJ
*	*v	*v
=7	=7
*^	*
4rc	12BBL	12r
.	12FFn	12r
.	12AJ	[12d [12dd
[4G-X [4g-X	12rEE	4d_ 4dd_
.	12e-XL	.
.	12AJ	.
=8	=8	=8
4G-] 4g-]	12BBL	6d] 6dd]
.	12FF	.
.	12AJ	[12d [12dd
4Gn 4gn	12rEE	6d] 6dd]
.	12e-XL	.
.	12AJ	12c#X 12cc#X
=9	=9	=9
*	*^	*^
8rc	16rEE	16r	4raa	4rc
.	[8.BB	16BB\LL	.	.
[8F	.	16F\	.	.
.	.	[16e-X\JJ	.	.
4F_	4BB_	4e-\_	[4ggn	[4a [4dd
=10	=10	=10	=10	=10
2F]	2BB]	2e-\]	4gg]	12aL] 12dd]
.	.	.	.	12dd-X
.	.	.	.	12aJ
.	.	.	4raa	12a-XL
.	.	.	.	12g
.	.	.	.	12e-XJ
*v	*v	*v	*	*
=11	=11	=11
4FF 4E-X 4An	4g-X	12dnL
.	.	12d-X
.	.	12AJ
4BBB 4FF#X 4D#X 4A	4fn	12dnL
.	.	12c#X
.	.	12AJ
*	*v	*v
=12	=12
*^	*
4rc	12BBL	12r
.	12FFn	12r
.	12AJ	[12d [12dd
4G-X 4g-X	12rEE	4d_ 4dd_
.	12e-XL	.
.	12AJ	.
=13	=13	=13
4rc	12GGnL	6d] 6dd]
.	12DD-X	.
.	12FJ	[12e-- [12ee--
4A-X 4a-X	12rEE	12e--L] 12ee--]
.	12fL	12e-X 12ee-X
.	12c-XJ	12enJ 12een
=14	=14	=14
*	*^	*^
8rc	16rEE	16r	4raa	4rc
.	[8.C#X	16C#\LL	.	.
[8G	.	16G\	.	.
.	.	[16f\JJ	.	.
4G_	4C#_	4f\_	[4aan	[4b [4ee
=15	=15	=15	=15	=15
2G]	2C#]	2f\]	4aa]	12bL] 12ee]
.	.	.	.	12ee-X
.	.	.	.	12bJ
.	.	.	4raa	12b-XL
.	.	.	.	12a
.	.	.	.	12fJ
*v	*v	*v	*	*
=16	=16	=16
4GG 4F 4B	4a-X	12enL
.	.	12e-X
.	.	12BJ
4CC#X 4GG#X 4E#X 4B	4gn	12enL
.	.	12e-X
.	.	12BJ
*	*v	*v
=17	=17
*^	*
4rc	12C#XL	12r
.	12GGn	12r
.	12BJ	[12en [12een
4A-X 4a-X	12rEE	4e_ 4ee_
.	12fL	.
.	12BJ	.
=18	=18	=18
4rc	12AAnL	6e] 6ee]
.	12EE-X	.
.	12GJ	[12f-X [12ff-X
4B-X 4b-X	12rEE	6f-] 6ff-]
.	12gL	.
.	12d-XJ	12fn 12ffn
=19	=19	=19
4rc	12C#XL	6r
.	12DD#X	.
.	12GJ	[12f#X [12ff#X
4B-X 4b-X	12rEE	4f#_ 4ff#_
.	12gL	.
.	12c#XJ	.
=20	=20	=20
4rc	12GL	6f#] 6ff#]
.	12AA	.
.	12c#XJ	[12d#X [12dd#X
4B-X 4b-X	12rEE	4d#_ 4dd#_
.	12gL	.
.	12c#J	.
=21	=21	=21
4rc	12C#XL	6d#] 6dd#]
.	12DD#X	.
.	12GJ	[12e [12ee
4B-X 4b-X	12rEE	6e] 6ee]
.	12gL	.
.	12c#XJ	[12f [12ff
=22	=22	=22
4rc	12GL	6f] 6ff]
.	12AA	.
.	12c#XJ	12f#X 12ff#X
4d-X 4dd-X	4Cn 4F#X 4e 4b-X	12aL 12aa
.	.	12a-X 12aa-X
.	.	12gJ 12gg
=23	=23	=23
4rc	12D#XL	8r
.	12AA	.
.	.	4f#X 4ff#X
.	12c#XJ	.
4B-X 4b-X	12rEE	.
.	12gL	.
.	.	8f# 8ff#
.	12c#J	.
=24	=24	=24
4rc	12BB#XL	8r
.	12FF#X	.
.	.	4f#X 4ff#X
.	12A#XJ	.
4G 4g	12rEE	.
.	12eL	.
.	.	8f# 8ff#
.	12A#J	.
=25	=25	=25
4rc	12D#XL	8r
.	12AAn	.
.	.	4f#X 4ff#X
.	12c#XJ	.
4B-X 4b-X	12rEE	.
.	12gL	.
.	.	8f# 8ff#
.	12c#J	.
=26	=26	=26
4rc	12F#XL	8r
.	12Cn	.
.	.	8a 8aa
.	12eJ	.
4d-X 4dd-X	12rEE	8a-XL 8aa-X
.	12b-XL	.
.	.	8gJ 8gg
.	12eJ	.
=27	=27	=27
4rc	16D#XLL	8r
.	16AA	.
.	16c#XJJ	4f#X 4ff#X
.	16rEE	.
4B-X 4b-X	16rEE	.
.	16gLL	.
.	16c#JJ	8f# 8ff#
.	16rEE	.
=28	=28	=28
4rc	16BB#XLL	8r
.	16FF#X	.
.	16A#XJJ	4f#X 4ff#X
.	16rEE	.
4G 4g	16rEE	.
.	16eLL	.
.	16A#JJ	8f# 8ff#
.	16rEE	.
=29	=29	=29
4rc	16D#XLL	8r
.	16AAn	.
.	16c#XJJ	4f#X 4ff#X
.	16rEE	.
4B-X 4b-X	16rEE	.
.	16gLL	.
.	16c#JJ	8f# 8ff#
.	16rEE	.
=30	=30	=30
4rc	16F#XLL	8r
.	16Cn	.
.	16eJJ	8f#X 8ff#X
.	16rEE	.
4d-X 4dd-X	16rEE	8ff#L
.	16b-XLL	.
.	16enJJ	8ee-XJ
.	16rEE	.
*v	*v	*
=31	=31
16D#XLL 16B-X	12c#X 12g 12b-X
16AAJJ	.
.	6f#X
8r	.
16DD#XLL 16BB-X	12c# 12g 12b-
16AAAJJ	.
.	6f#
8r	.
=32	=32
16BB#XLL 16G	12A#X 12e 12g
16FF#XJJ	.
.	6f
8r	.
16BBB#XLL 16GG	12A# 12e 12g
16FFF#XJJ	.
.	6f
8r	.
=33	=33
16D#XLL 16B-X	12c#X 12g 12b-X
16AAJJ	.
.	6f#X
8r	.
16DD#XLL 16BB-X	12c# 12g 12b-
16AAAJJ	.
.	6f#
8r	.
=34	=34
16F#XLL 16d-X	12e 12b-X 12dd-X
16CnJJ	.
.	6a
8r	.
16FF#XLL 16D-X	12eL 12a-X 12b- 12dd-
16CCJJ	.
.	12gJ
8r	.
.	12r
=35	=35
16D#XLL 16B-X	12c#XL 12g 12b-X
16AAnJJ	.
.	12f#X
8r	.
.	12f#J
16DD#XLL 16BB-X	12c#L 12g 12b-
16AAAJJ	.
.	12f#
8r	.
.	12f#J
=36	=36
16BB#XLL 16G	12A#XL 12e 12g
16FF#XJJ	.
.	12f#X
8r	.
.	12f#J
16BBB#XLL 16GG	12A#L 12e 12g
16FFF#XJJ	.
.	12f#
8r	.
.	12f#J
=37	=37
16D#XLL 16B-X	12c#XL 12g 12b-X
16AAnJJ	.
.	12f#X
8r	.
.	12f#J
16DD#XLL 16BB-X	12c#L 12g 12b-
16AAAJJ	.
.	12f#
8r	.
.	12f#J
=38	=38
16F#XLL 16d-X	12eL 12b-X 12dd-X
16CnJJ	.
.	12a
8r	.
.	12aJ
16FF#XLL 16D-X	12eL 12a-X 12b- 12dd-
16CCJJ	.
.	12a-
8r	.
.	12gJ
=39	=39
16D#XLL 16B-X	12c#XL 12g 12b-X
16AAnJJ	.
.	12f#X
8r	.
.	12f#J
16DD#XLL 16BB-X	12c#L 12g 12b-
16AAAJJ	.
.	12f#
8r	.
.	12f#J
=40	=40
16F#XLL 16d-X	12eL 12b-X 12dd-X
16CnJJ	.
.	12a
8r	.
.	12aJ
16FF#XLL 16D-X	12eL 12a-X 12b- 12dd-
16CCJJ	.
.	12a-
8r	.
.	12gJ
=41	=41
16D#XLL 16B-X	12c#XL 12g 12b-X
16AAnJJ	.
.	12f#X
8r	.
.	12f#J
16DD#XLL 16BB-X	12c#L 12g 12b-
16AAAJJ	.
.	12f#
8r	.
.	12f#J
=42	=42
16F#XLL 16d-X	12eL 12b-X 12dd-X
16CnJJ	.
.	12a
8r	.
.	12aJ
16FF#XLL 16D-X	12eL 12a-X 12b- 12dd-
16CCJJ	.
.	12a-
8r	.
.	12gJ
=43	=43
16D#XLL 16B-X	12c#XL 12g 12b-X
16AAnJJ	.
.	12f#X
8r	.
.	12f#J
16DD#XLL 16BB-X	12c#L 12g 12b-
16AAAJJ	.
.	12f#
8r	.
.	12f#J
=44	=44
16BBnLL 16F#X	12AL 12dn 12d#X 12f#X
16EE#XJJ	.
.	12f#
8r	.
.	12f#J
16BBBLL 16FF#X	12AL 12dn 12d# 12f#
16EEE#XJJ	.
.	12f#
8r	.
.	12f#J
=45	=45
16GG#XLL 16E-X	12F#XL 12c 12d 12e-X
16DDnJJ	.
.	12f#X
8r	.
.	12f#J
16GGG#XLL 16EE-X	12F#L 12c 12d 12e-
16DDDJJ	.
.	12f#
8r	.
.	12f#J
=46	=46
16EE#XLL 16C	12D#XL 12A 12Bn 12c
16BBBJJ	.
.	12f#X
8r	.
.	12f#J
16EEE#XLL 16CC	12D#L 12A 12B 12c
16BBBBJJ	.
.	12f#
8r	.
.	12f#J
=47	=47
2r	12f#XL
.	12f#
.	12f#J
.	12f#L
.	12f#
.	12f#J
=48||	=48||
*	*^
16r	6g-X	12dL
16ALL	.	.
.	.	12d-X
16E-X	.	.
.	12dd-X	12AJ
16FFnJJ	.	.
16r	4cc	12g#XL
16d#XLL	.	.
.	.	12gn
16A	.	.
.	.	12d#XJ
16BBJJ	.	.
=49	=49	=49
16r	6g-X	12dnL
16ALL	.	.
.	.	12d-X
16E-X	.	.
.	12dd-X	12AJ
16FFJJ	.	.
16r	4cc	12g#XL
16d#XLL	.	.
.	.	12gn
16A	.	.
.	.	12d#XJ
16BBJJ	.	.
=50	=50	=50
16r	6e-X	12BnL
16ALL	.	.
.	.	12B-X
16E-X	.	.
.	12dd-X	12AJ
16FFJJ	.	.
16rD	4een	12bL
16f#XLL	.	.
.	.	12b-X
16c	.	.
.	.	12f#XJ
16DJJ	.	.
=51	=51	=51
16r	6b--	12fnL
16cLL	.	.
.	.	12f-X
16G-X	.	.
.	12ff-X	12cJ
16AA-XJJ	.	.
[4BBn [4Fn [4e-X	[4ggn	[4an [4dd
=52	=52	=52
2BB] 2F] 2e-]	4gg]	12aL] 12dd]
.	.	12dd-X
.	.	12aJ
.	4raa	12a-XL
.	.	12g
.	.	12e-XJ
=53	=53	=53
4FF 4E-X 4An	4g-X	12dnL
.	.	12d-X
.	.	12AJ
4BBB 4FF#X 4D#X 4A	4fn	12dnL
.	.	12c#X
.	.	12AJ
*	*v	*v
=54	=54
*^	*
4rc	12EE#XL	6r
.	12BBB	.
.	12D#XJ	[12G#X [12g#X
4Cn 4cn	12rEE	4G#_ 4g#_
.	12AL	.
.	12D#J	.
=55	=55	=55
4rc	12EE#XL	6G#] 6g#]
.	12BBB	.
.	12D#XJ	[12A [12a
4C 4c	12rEE	12A] 12a]
.	12AL	6c 6cc
.	12D#J	.
=56	=56	=56
4rc	12AAL	12r
.	12BBB	12r
.	12E-XJ	[12dn [12ddn
4G-X 4g-X	12rEE	4d_ 4dd_
.	12e-XL	.
.	12AJ	.
=57	=57	=57
4rc	12E-XL	6d] 6dd]
.	12FF	.
.	12AJ	[12B [12b
4G-X 4g-X	12rEE	4B_ 4b_
.	12e-XL	.
.	12AJ	.
=58	=58	=58
4rc	12AAL	6B] 6b]
.	12BBB	.
.	12E-XJ	[12c [12cc
4G-X 4g-X	12rEE	6c] 6cc]
.	12e-XL	.
.	12AJ	[12d-X [12dd-X
=59	=59	=59
4rc	12E-XL	6d-] 6dd-]
.	12FF	.
.	12AJ	12dn 12ddn
4B-- 4b--	4AA-X 4D 4c 4g-X	12fL 12ff
.	.	12f-X 12ff-X
.	.	12e-XJ 12ee-X
=60	=60	=60
4rc	12BBnL	8r
.	12FFn	.
.	.	4d 4dd
.	12AnJ	.
4G-X 4g-X	12rEE	.
.	12e-XL	.
.	.	8d 8dd
.	12AJ	.
=61	=61	=61
4rc	12GG#XL	8r
.	12DD	.
.	.	4d 4dd
.	12F#XJ	.
4E-X 4e-X	12rEE	.
.	12cL	.
.	.	8d 8dd
.	12F#J	.
=62	=62	=62
4rc	12BBL	8r
.	12FFn	.
.	.	4d 4dd
.	12AJ	.
4G-X 4g-X	12rEE	.
.	12e-XL	.
.	.	8d 8dd
.	12AJ	.
=63	=63	=63
4rc	12DL	8r
.	12AA-X	.
.	.	8f 8ff
.	12cJ	.
4B-- 4b--	12rEE	8f-XL 8ff-X
.	12g-XL	.
.	.	8e-XJ 8ee-X
.	12cJ	.
=64	=64	=64
4rc	16BBnLL	8d 8dd
.	16FFn	.
.	16AnJJ	4d 4dd
.	16rEE	.
4G-X 4g-X	16rEE	.
.	16e-XLL	.
.	16AJJ	8d 8dd
.	16rEE	.
=65	=65	=65
4rc	16GG#XLL	8r
.	16DD	.
.	16F#XJJ	4d 4dd
.	16rEE	.
4E-X 4e-X	16rEE	.
.	16cLL	.
.	16F#JJ	8d 8dd
.	16rEE	.
=66	=66	=66
4rc	16BBLL	8r
.	16FFn	.
.	16AJJ	4d 4dd
.	16rEE	.
4G-X 4g-X	16rEE	.
.	16e-XLL	.
.	16AJJ	8d 8dd
.	16rEE	.
=67	=67	=67
4rc	16DLL	8r
.	16AA-X	.
.	16cJJ	8d 8dd
.	16rEE	.
4B-- 4b--	16rEE	8dL 8dd
.	16g-XLL	.
.	16cJJ	8bnJ
.	16rEE	.
*v	*v	*
=68	=68
16BBnLL 16G-X	12An 12e-X 12g-X
16FFJJ	.
.	6d
8r	.
16BBBLL 16GG-X	12A 12e- 12g-
16FFFJJ	.
.	6d
8r	.
=69	=69
16GG#XLL 16E-X	12F#X 12c 12e-X
16DDJJ	.
.	6d
8r	.
16GGG#XLL 16EE-X	12F# 12c 12e-
16DDDJJ	.
.	6d
8r	.
=70	=70
16BBLL 16G-X	12A 12e-X 12g-X
16FFJJ	.
.	6d
8r	.
16BBBLL 16GG-X	12A 12e- 12g-
16FFFJJ	.
.	6d
8r	.
=71	=71
16DLL 16B--	12c 12g-X 12b--
16AA-XJJ	.
.	6d
8r	.
16DDLL 16BB--	12cL 12g- 12b--
16AAA-XJJ	.
.	12f-X
8r	.
.	12e-XJ
=72	=72
16BBnLL 16G-X	12AnL 12e-X 12g-X
16FFJJ	.
.	12d
8r	.
.	12dJ
16BBBLL 16GG-X	12AL 12e- 12g-
16FFFJJ	.
.	12d
8r	.
.	12dJ
=73	=73
16GG#XLL 16E-X	12F#XL 12c 12e-X
16DDJJ	.
.	12d
8r	.
.	12dJ
16GGG#XLL 16EE-X	12F#L 12c 12e-
16DDDJJ	.
.	12d
8r	.
.	12dJ
=74	=74
16BBLL 16G-X	12AL 12e-X 12g-X
16FFJJ	.
.	12d
8r	.
.	12dJ
16BBBLL 16GG-X	12AL 12e- 12g-
16FFFJJ	.
.	12d
8r	.
.	12dJ
=75	=75
16DLL 16B--	12cL 12g-X 12b--
16AA-XJJ	.
.	12d
8r	.
.	12dJ
16DDLL 16BB--	12cL 12f-X 12g- 12b--
16AAA-XJJ	.
.	12f-
8r	.
.	12e-XJ
=76	=76
16BBnLL 16G-X	12AnL 12e-X 12g-X
16FFJJ	.
.	12d
8r	.
.	12dJ
16BBBLL 16GG-X	12AL 12e- 12g-
16FFFJJ	.
.	12d
8r	.
.	12dJ
=77	=77
16DLL 16B--	12cL 12g-X 12b--
16AA-XJJ	.
.	12f
8r	.
.	12fJ
16DDLL 16BB--	12cL 12f-X 12g- 12b--
16AAA-XJJ	.
.	12f-
8r	.
.	12e-XJ
=78	=78
16BBnLL 16G-X	12AnL 12e-X 12g-X
16FFnJJ	.
.	12d
8r	.
.	12dJ
16BBBLL 16GG-X	12AL 12e- 12g-
16FFFJJ	.
.	12d
8r	.
.	12dJ
=79	=79
16DLL 16B--	12cL 12g-X 12b--
16AA-XJJ	.
.	12f
8r	.
.	12fJ
16DDLL 16BB--	12cL 12f-X 12g- 12b--
16AAA-XJJ	.
.	12f-
8r	.
.	12e-XJ
=80	=80
2r	2r
=81||	=81||
*	*^
*	*	*^
4FFn 4E-X 4An	6g-X	4rc	12d\L
.	.	.	12d-X\
.	12dd-X	.	12A\J
[4BB [4A 4d#X	[4cc	12rc	12g#X\L
.	.	[6gn	12g\
.	.	.	[12d#X\J
=82	=82	=82	=82
2BB] 2A]	2cc]	2g]	2d#/]
*	*v	*v	*v
=83	=83
2FFF 2FF 2E-X	2A 2dn 2g-X
==	==
*-	*-
!!!system-decoration: [(s1,s2)]
!!!ENC: Bryan Jacob Bell
!!!END: November 2021 to April 2022
!!!PED: Günter Philipp
!!!PTL: Ausgewählte Klavierwerke (Edition Peters)
